src/pos-icons/heart-off.svg

<svg height="24" viewBox="0 0 24 24" width="24" xmlns="http://www.w3.org/2000/svg"><path d="m1 4.27 1.28-1.27 17.72 17.72-1.27 1.28-3.55-3.56-1.73 1.59-1.45 1.32-1.45-1.32c-5.15-4.67-8.55-7.76-8.55-11.53 0-.95.23-1.83.63-2.6zm6.5-1.27c1.74 0 3.41.81 4.5 2.08 1.09-1.27 2.76-2.08 4.5-2.08 3.08 0 5.5 2.41 5.5 5.5 0 2.57-1.58 4.82-4.21 7.47l-12.52-12.52c.68-.29 1.43-.45 2.23-.45z"/></svg>

<?xml version="1.0" encoding="UTF-8"?><!DOCTYPE svg PUBLIC "-//W3C//DTD SVG 1.1//EN" "http://www.w3.org/Graphics/SVG/1.1/DTD/svg11.dtd"><svg xmlns="http://www.w3.org/2000/svg" xmlns:xlink="http://www.w3.org/1999/xlink" version="1.1" id="mdi-heart-off" width="24" height="24" viewBox="0 0 24 24"><path d="M1,4.27L2.28,3L20,20.72L18.73,22L15.18,18.44L13.45,20.03L12,21.35L10.55,20.03C5.4,15.36 2,12.27 2,8.5C2,7.55 2.23,6.67 2.63,5.9L1,4.27M7.5,3C9.24,3 10.91,3.81 12,5.08C13.09,3.81 14.76,3 16.5,3C19.58,3 22,5.41 22,8.5C22,11.07 20.42,13.32 17.79,15.97L5.27,3.45C5.95,3.16 6.7,3 7.5,3Z" /></svg>
